X: 39892
T: Thistle Schottische, The
R: barndance
M: 4/4
K: Gmajor
|:(3Bc^c|d2 (3BAG E>G_E>G|D6 (3Bc^c|d2 (3BAG E>FG>^G|A6 B>F|
A>GB,>C D2 (3GFG|A>A,B>B, c2 (3Bc^c|d>ed>B A>GE>F|1 G6:|2 G4- G>B,C>^C||
|:D4- D>B,C>B,|E6 F>G|(3ABA ^G>A d>cG>A|B6 B>F|
A>GB,>C D2 (3GFG|A>A,B>B, c2 (3Bc^c|d>ed>B A>GE>F|1 G4- G>B,C>^C:|2 G6||
(3Bc^c|d2 (3BAG E>G_E>G|D6 (3Bc^c|d2 (3BAG E>FG>^G|A6 B>F|
A>GB,>C D2 (3GFG|A>A,B>B, c2 (3Bc^c|d>ed>B A>GE>F|G6||
|:B>c|(3dgd (3BdB (3GBG (3DGB|(3cec (3AcA E2 A>G|(3FAc f>e (3ded (3cBA|(3GBA (3GFE D2 B>c|
(3dgd (3BdB G>Bd>B|(3cec (3AcA E2 A>G|(3FAc f>e (3ded (3cBA|G2 B2 G2:|

